src/lib/packages/icons/src/assets/line/file-export.svg

<svg xmlns="http://www.w3.org/2000/svg" width="24" height="24" fill="none"><path fill="currentColor" d="m20.53 8.47-6-6a.749.749 0 0 0-.53-.22H8C5.582 2.25 4.25 3.582 4.25 6v12c0 2.418 1.332 3.75 3.75 3.75h9c2.418 0 3.75-1.332 3.75-3.75V9a.747.747 0 0 0-.22-.53Zm-5.78-3.659 3.439 3.439H17c-1.577 0-2.25-.673-2.25-2.25V4.811ZM17 20.25H8c-1.577 0-2.25-.673-2.25-2.25V6c0-1.577.673-2.25 2.25-2.25h5.25V6c0 2.418 1.332 3.75 3.75 3.75h2.25V18c0 1.577-.673 2.25-2.25 2.25Zm-2.308-4.963a.749.749 0 0 1-.162.244l-2 2a.748.748 0 0 1-1.06 0 .75.75 0 0 1 0-1.061l.72-.72H9a.75.75 0 0 1 0-1.5h3.189l-.72-.72a.75.75 0 1 1 1.061-1.061l2 2a.749.749 0 0 1 .162.818Z"/></svg>

<svg width="24" height="24" viewBox="0 0 24 24" fill="none" xmlns="http://www.w3.org/2000/svg">
<path d="M20.53 8.47L14.53 2.47C14.389 2.329 14.199 2.25 14 2.25H8C5.582 2.25 4.25 3.582 4.25 6V18C4.25 20.418 5.582 21.75 8 21.75H17C19.418 21.75 20.75 20.418 20.75 18V9C20.75 8.801 20.671 8.61 20.53 8.47ZM14.75 4.811L18.189 8.25H17C15.423 8.25 14.75 7.577 14.75 6V4.811ZM17 20.25H8C6.423 20.25 5.75 19.577 5.75 18V6C5.75 4.423 6.423 3.75 8 3.75H13.25V6C13.25 8.418 14.582 9.75 17 9.75H19.25V18C19.25 19.577 18.577 20.25 17 20.25ZM14.6919 15.287C14.6539 15.379 14.599 15.462 14.53 15.531L12.53 17.531C12.384 17.677 12.192 17.751 12 17.751C11.808 17.751 11.616 17.678 11.47 17.531C11.177 17.238 11.177 16.763 11.47 16.47L12.1899 15.75H9C8.586 15.75 8.25 15.414 8.25 15C8.25 14.586 8.586 14.25 9 14.25H12.189L11.469 13.53C11.176 13.237 11.176 12.762 11.469 12.469C11.762 12.176 12.237 12.176 12.53 12.469L14.53 14.469C14.599 14.538 14.6539 14.621 14.6919 14.713C14.7679 14.896 14.7679 15.104 14.6919 15.287Z" fill="currentColor"/>
</svg>
